brandFactory_export/3.Masa/Ordenador_3Masa.svg

<?xml version="1.0" encoding="UTF-8"?>
<svg width="24px" height="24px" viewBox="0 0 24 24" version="1.1" xmlns="http://www.w3.org/2000/svg" xmlns:xlink="http://www.w3.org/1999/xlink">
    <title>3.Masa/Ordenador_3Masa</title>
    <g id="Symbols" stroke="none" stroke-width="1" fill="none" fill-rule="evenodd">
        <g id="3.Masa/Ordenador_3Masa" fill="#5CB615" fill-rule="nonzero">
            <path d="M19.4957983,18.7781513 L4.13109244,18.7680672 C2.78655462,18.7680672 1.74453782,18.394958 1.03529412,17.6554622 C0.346218487,16.9462185 0,15.9310924 0,14.6403361 L0,7.10756303 C0,4.46554622 1.46554622,3.01344538 4.12773109,3.01344538 L19.4957983,3.02352941 C22.1579832,3.02352941 23.6235294,4.4789916 23.6235294,7.11764706 L23.6235294,14.6504202 C23.6235294,15.9411765 23.2773109,16.9563025 22.5915966,17.6655462 C21.8789916,18.405042 20.8369748,18.7781513 19.4957983,18.7781513 L19.4957983,18.7781513 Z M22.9512605,21.4336134 L0.672268908,21.4235294 C0.302521008,21.4235294 0,21.1210084 0,20.7512605 C0,20.3815126 0.302521008,20.0789916 0.672268908,20.0789916 L22.9512605,20.0890756 C23.3210084,20.0890756 23.6235294,20.3915966 23.6235294,20.7613445 C23.6235294,21.1310924 23.3210084,21.4336134 22.9512605,21.4336134 Z" id="Ordenador_3Masa"></path>
        </g>
    </g>
</svg>

<svg width="24" height="24" viewBox="0 0 24 24" xmlns="http://www.w3.org/2000/svg"><path d="M19.496 18.778l-15.365-.01c-1.344 0-2.386-.373-3.096-1.113C.346 16.946 0 15.931 0 14.64V7.108c0-2.642 1.466-4.095 4.128-4.095l15.368.01c2.662 0 4.128 1.456 4.128 4.095v7.532c0 1.291-.347 2.306-1.032 3.016-.713.739-1.755 1.112-3.096 1.112zm3.455 2.656l-22.279-.01A.674.674 0 010 20.75c0-.37.303-.672.672-.672l22.28.01c.369 0 .672.303.672.672 0 .37-.303.673-.673.673z" fill="#5CB615" fill-rule="nonzero"/></svg>
